packages/bezier-icons/icons/plus-small.svg

<svg width="24" height="24" viewBox="0 0 24 24" fill="none" xmlns="http://www.w3.org/2000/svg">
<path d="M12 5C11.4477 5 11 5.44772 11 6V11H6C5.44772 11 5 11.4477 5 12C5 12.5523 5.44772 13 6 13H11V18C11 18.5523 11.4477 19 12 19C12.5523 19 13 18.5523 13 18V13H18C18.5523 13 19 12.5523 19 12C19 11.4477 18.5523 11 18 11H13V6C13 5.44772 12.5523 5 12 5Z" fill="#313234"/>
</svg>

<svg xmlns="http://www.w3.org/2000/svg" width="24" height="24" fill="none" viewBox="0 0 24 24"><path fill="#313234" d="M12 5a1 1 0 0 0-1 1v5H6a1 1 0 1 0 0 2h5v5a1 1 0 1 0 2 0v-5h5a1 1 0 1 0 0-2h-5V6a1 1 0 0 0-1-1"/></svg>
